polaris-icons/icons/new-icons/CreditCardSecureMajor.svg

<svg width="20" height="20" viewBox="0 0 20 20" fill="none" xmlns="http://www.w3.org/2000/svg">
<path d="M2.5 6.75C2.5 5.23122 3.73122 4 5.25 4H14.75C16.2688 4 17.5 5.23122 17.5 6.75V8C17.5 8.41421 17.1642 8.75 16.75 8.75C16.3358 8.75 16 8.41421 16 8V6.75C16 6.05964 15.4404 5.5 14.75 5.5H5.25C4.55964 5.5 4 6.05964 4 6.75V7.25H12C12.5523 7.25 13 7.69772 13 8.25C13 8.80228 12.5523 9.25 12 9.25H4V13.25C4 13.9404 4.55964 14.5 5.25 14.5H9.30172C9.71594 14.5 10.0517 14.8358 10.0517 15.25C10.0517 15.6642 9.71594 16 9.30172 16H5.25C3.73122 16 2.5 14.7688 2.5 13.25V6.75Z" fill="#4A4A4A"/>
<path d="M5.75 11.5C5.33579 11.5 5 11.8358 5 12.25C5 12.6642 5.33579 13 5.75 13H7.75C8.16421 13 8.5 12.6642 8.5 12.25C8.5 11.8358 8.16421 11.5 7.75 11.5H5.75Z" fill="#4A4A4A"/>
<path fill-rule="evenodd" clip-rule="evenodd" d="M13 12.25C12.4477 12.25 12 12.6977 12 13.25V16C12 16.5523 12.4477 17 13 17H17C17.5523 17 18 16.5523 18 16V13.25C18 12.6977 17.5523 12.25 17 12.25V11.5C17 10.3954 16.1046 9.5 15 9.5C13.8954 9.5 13 10.3954 13 11.5V12.25ZM15.5 12.25V11.5C15.5 11.2239 15.2761 11 15 11C14.7239 11 14.5 11.2239 14.5 11.5V12.25H15.5Z" fill="#4A4A4A"/>
</svg>

<svg viewBox="0 0 20 20" xmlns="http://www.w3.org/2000/svg"><path d="M2.5 6.75a2.75 2.75 0 0 1 2.75-2.75h9.5a2.75 2.75 0 0 1 2.75 2.75v1.25a.75.75 0 0 1-1.5 0v-1.25c0-.69-.56-1.25-1.25-1.25h-9.5c-.69 0-1.25.56-1.25 1.25v.5h8a1 1 0 1 1 0 2h-8v4c0 .69.56 1.25 1.25 1.25h4.052a.75.75 0 0 1 0 1.5h-4.052a2.75 2.75 0 0 1-2.75-2.75v-6.5Z" fill="#5C5F62"/><path d="M5.75 11.5a.75.75 0 0 0 0 1.5h2a.75.75 0 0 0 0-1.5h-2Z" fill="#5C5F62"/><path fill-rule="evenodd" d="M13 12.25a1 1 0 0 0-1 1v2.75a1 1 0 0 0 1 1h4a1 1 0 0 0 1-1v-2.75a1 1 0 0 0-1-1v-.75a2 2 0 1 0-4 0v.75Zm2.5 0v-.75a.5.5 0 0 0-1 0v.75h1Z" fill="#5C5F62"/></svg>
